X: 65
T: Three Jolly Sheepskins
R: hornpipe
Z: John Chambers <jc@trillian.mit.edu>
M: C|
L: 1/8
K: G
|: A2D2 A2D2 | ccBA GAB2 | A2D2 A2D2 | ccBA G4 :|
|: BcdB ABcA | BcdB A4 |  BcdB ABcA | BAGF G4 :|


